X: 19
T:Cock of the North
M:6/8
L:1/8
R:Jig
N:http://www.lesession.co.uk
Z:Steve Mansfield 1998-2001
K:G
d/c/ | BcB BAG | Bcd e2 d | BcB BAG | ABA Adc | 
BcB BAG | Bcd e2 d | BcB AGF | G3 G2 ::  d | 
g2 d e2 d | g2 d e2 d | BcB BAG | ABc def | 
g2 d e2 d | g2 d e2 d | BcB AGF | G3 G2 :|

